X:22
T:Stirling Castle
T:Grey Day-Licht, The
R:strathspey
C:Professor Bannatyne, Aberdeen
O:Scotland
Z:id:hn-strathspey-22
M:C
L:1/8
K:D
D2 F>A D>A F<A | A,2 C>E A,>E C<E | D2 F>A D>A F>A |
[1 (3Bcd (3efg (3fed (3cBA :|2 (3Bcd (3efg f<d d>A ||
|: d2 f>a g>e f>d | B2 g>f e>d (3cBA |1 d2 f>a g>e f>d | (3Bcd (3efg f<d d>A :|
[2 (3fga (3gfe (3dcB (3AGF | (3GAB (3ABc (3dAG (3FGE ||

